logo/reapp.svg

<?xml version="1.0" encoding="UTF-8" standalone="no"?>
<svg width="256px" height="338px" viewBox="0 0 256 338" version="1.1" xmlns="http://www.w3.org/2000/svg" xmlns:xlink="http://www.w3.org/1999/xlink" preserveAspectRatio="xMidYMid">
	<g>
		<path d="M63.5120941,0.566211765 C63.5120941,0.566211765 0.228894118,0.566211765 0.228894118,63.8494118 L0.228894118,285.334588 C0.228894118,285.334588 63.5120941,286.599529 63.5120941,223.003106 L63.5120941,111.310808 L63.5120941,98.6533647 L63.5120941,79.6672 C63.5120941,70.9290667 70.5957647,63.8494118 79.3298824,63.8494118 L96.4166275,63.8494118 L126.160816,63.8494118 C187.544596,63.8494118 188.809537,0.566211765 188.809537,0.566211765 L63.5120941,0.566211765 L63.5120941,0.566211765 Z" fill="#27CCF5"></path>
		<path d="M192.026102,114.940988 L192.026102,226.629271 L192.026102,239.286714 L192.026102,258.272878 C192.026102,267.011012 184.942431,274.090667 176.208314,274.090667 L159.121569,274.090667 L129.381396,274.090667 C67.9976157,274.090667 66.7286588,337.373867 66.7286588,337.373867 L192.026102,337.373867 C192.026102,337.373867 255.309302,337.373867 255.309302,274.090667 L255.309302,52.6054902 C255.309302,52.6054902 192.026102,51.340549 192.026102,114.940988 L192.026102,114.940988 Z" fill="#22E071"></path>
	</g>
</svg>

<svg viewBox="0 0 256 338" xmlns="http://www.w3.org/2000/svg"><path fill="#27CCF5" d="M63.51.56s-63.29 0-63.29 63.28v221.48s63.28 1.26 63.28-62.34v-111.7 -12.66 -18.99c0-8.74 7.08-15.82 15.81-15.82h17.08 29.74c61.38 0 62.64-63.29 62.64-63.29H63.47v0Z"/><path fill="#22E071" d="M192.02 114.94v111.68 12.65 18.98c0 8.73-7.09 15.81-15.82 15.81h-17.09 -29.75c-61.39 0-62.66 63.28-62.66 63.28h125.29s63.28 0 63.28-63.29V52.56s-63.29-1.27-63.29 62.33v0Z"/></svg>
